!!!COM: Charles Gounod
!!!CNT: Francais
!!!TXO: Francais
!!!OTL: "Chanter et souffrir"
!!!LYR: Delpit
!!!OPR: 
!!!OPS: Op. 
!!!ONM: No.
!!!ENC: Emily Thomas
!!!YOR: CD Sheet Music French Art Songs, The Ultimate Collection
!!!YOR: CD Sheet Music, LLC 2003
!!!ODT: 1872/
!!NB: Vocal melody and text encoded.
**kern	**silbe
=1	=1
*clefG2	*
*k[b-e-]	*
*M3/4	*
*MM[Andantino]	*
2.r	.
=2	=2
2.r	.
=3	=3
2.r	.
=4	=4
2.r	.
=5	=5
2.r	.
=6	=6
{4dd	{Chan-
8b-	-te!
8r	.
12ee-	me
12ff	dit
12ee-	l'oi-
=7	=7
8.dd	-seau
16cc#	ja-
[4dd	-seur,
8dd]}	|}
8r	.
=8	=8
{4dd	{Souf-
8b-	-fre!
8r	.
12b-	dit
12a	|
12g	la
=9	=9
12a	voix
12b-	e/-
12bn	-ter-
4cc	-nel-
8f}	-le}
8r	.
=10	=10
{8.dd	{Et
16cc#	je
8dd	sens
8b-	vib-
8ff	-rer-
8ee-	|
=11	=11
8.dd	dans
16cc#	mon
8dd	Coeur
8r	.
8.ff	Cet-
16een	-te
=12	=12
12gg	dou-
12ff	|
12dd	-ble
12dd	voix
12cc	qui
12a	m'ap-
8.a	-pel-
16g	|
=13	=13
4f}	-le.}
4r	.
8r	.
{8ff	{Al-
=14	=14
8.ff	-lons
16b-	po-
[4b-	-e\te!
8b-]	|
8ff	il
=15	=15
8.ff	faut
16gg	lut-
8ee-}	-ter!}
8r	.
{8.ee-	{La
16ff	dou-
=16	=16
4gg	-leur
12ee-	est
12dd	|
12cc	le
8.dd	grand
16g	mys-
=17	=17
4dd	-te\-
8cc}	-re;}
8r	.
{4cc	{Ce
=18	=18
8cc	qui
8bn	te
8cc	fait
8dd	souf-
8ee-	-frir
8een	sur
=19	=19
4een	ter-
8ff}	-re,}
8r	.
{4gg	{C'est
=20	=20
8cc	la\
8bn	ce
8cc	qui
8dd	te
8ee-	fait
8een	chan-
=21	=21
[4ff	-ter!
8ff]}	|}
8r	.
{4ff	{Ce
=22	=22
8gg	qui
8ff	te
8ff	fait
8ee-	souf-
8ee-	-frir
8dd	sur
=23	=23
4dd	ter-
8g}	-re,}
8r	.
{4cc	{C'est
=24	=24
8dd	la\
8cc	ce
8ee-	qui
8g	te
8a	fait
8cc	chan-
=25	=25
[4b-	-ter!
8b-]}	|}
8r	.
4r	.
=26	=26
2.r	.
=27	=27
2.r	.
=28	=28
2.r	.
=29	=29
2.r	.
=30	=30
{4dd	{Chan-
8b-	-te!
8r	.
12ee-	car
12ff	Dieu
12ee-	va
=31	=31
8.dd	t'ins-
16cc#	-pi-
[4dd	-rer!
8dd]}	|}
8r	.
=32	=32
{4dd	{Souf-
8b-	-fre!
8r	.
12b-	sans
12a	|
12g	ge/-
=33	=33
12a	-mir
12b-	et
12bn	sans
4cc	crain-
8f}	-dre}
8r	.
=34	=34
{8.dd	{L'a^-
16cc#	-me
8.dd	sait
16b-	tou-
8ff	-jours
8ee-	|
=35	=35
8.dd	es-
16cc#	-pe/r-
8dd}	-er}
8r	.
{8.ff	{Quand
16een	le
=36	=36
12gg	Coeur
12ff	|
12dd	est
12dd	las
12cc	de
12a	se
8.a	plain-
16g	|
=37	=37
4f}	-dre.}
4r	.
8r	.
{8ff	{Al-
=38	=38
8.ff	-lons
16b-	po=
4b-	-e\-
8b-	-te,
8ff	il
=39	=39
8.ff	faut
16gg	lut-
8ee-}	-ter!}
8r	.
{8.ee-	{La
16ff	dou-
=40	=40
4gg	-leur
12ee-	est
12dd	|
12cc	le
8.dd	grand
16g	mys-
=41	=41
4dd	-te\-
8cc}	-re}
8r	.
{4cc	{Ce
=42	=42
8cc	qui
8bn	te
8cc	fait
8dd	souf-
8ee-	-frir
8een	sur
=43	=43
4een	ter-
8ff}	-re,}
8r	.
{4gg	{C'est
=44	=44
8cc	la\
8bn	ce
8cc	qui
8dd	te
8ee-	fait
8een	chan-
=45	=45
[4ff	-ter!
8ff]}	|}
8r	.
{4ff	{Ce
=46	=46
8gg	qui
8ff	te
8ff	fait
8ee-	souf-
8ee-	-frir
8dd	sur
=47	=47
4dd	ter-
8g}	-re.}
8r	.
{4cc	{C'est
=48	=48
8dd	la\
8cc	ce
8ee-	qui
8g	te
8a	fait
8cc	chan-
=49	=49
[4b-	-ter!
8b-]}	|}
8r	.
4r	.
=50	=50
2.r	.
=51	=51
2.r	.
=52	=52
2.r	.
=53	=53
2.r	.
=54	=54
{4dd	{Chan-
8b-	-te!
8r	.
12ee-	c'est
12ff	le
12ee-	re/-
=55	=55
8.dd	-veil
16cc#	du
[4dd	Coeur
8dd]}	|}
8r	.
=56	=56
{4dd	{Souf-
8b-	-fre!
8r	.
12b-	c'est
12a	|
12g	la
=57	=57
12a	loi
12b-	de
12bn	la
4cc	vi-
8f}	-e}
8r	.
=58	=58
{8.dd	{Tous
16cc#	les
8dd	deux
8b-	en-
8ff	-fants
8ee-	|
=59	=59
8.dd	du
16cc#	mal-
8dd	-heur
8r	.
12ff	sont
12ff	la
12een	se-
=60	=60
12gg	-men-
12ff	|
12dd	-ce
12dd	du
12cc	|
12a	ge/-
8.a	-ni-
16g	|
=61	=61
4f}	-e}
4r	.
8r	.
{8ff	{Al-
=62	=62
8.ff	-lons
16b-	po-
[4b-	-e\te!
8b-]	|
8ff	il
=63	=63
8.ff	faut
16g	lut-
8ee-}	-ter!}
8r	.
{8.ee-	{La
16ff	dou-
=64	=64
4gg	-leur
12ee-	est
12dd	|
12cc	le
8.dd	grand
16g	mys-
=65	=65
4dd	-te\-
8cc}	-re.}
8r	.
{4cc	{Ce
=66	=66
8cc	qui
8bn	te
8cc	fait
8dd	souf-
8ee-	-frir
8een	sur
=67	=67
4een	ter-
8ff}	-re,}
8r	.
{4gg	{C'est
=68	=68
8cc	la\
8bn	ce
8cc	qui
8dd	te
8ee-	fait
8een	chan-
=69	=69
[4ff	-ter!
8ff]}	|}
8r	.
{4ff	{Ce
=70	=70
8gg	qui
8ff	te
8ff	fait
8ee-	souf-
8ee-	-frir
8dd	sur
=71	=71
4dd	ter-
8g}	-re,}
8r	.
{4cc	{C'est
=72	=72
8dd	la\
8cc	ce
8ee-	qui
8g	te
8a	fait
8cc	chan-
=73	=73
[4b-	-ter!
8b-]}	|}
8r	.
4r	.
==	==
*-	*-
